X:1
T:Title
%%score { 1 | 2 }
L:1/8
Q:1/4=90
M:2/4
K:Eb
V:1 treble nm="Grand Piano"
V:2 bass 
V:1
 EG GG | FG A2 | [DF][EG] [EA][Dc] | c B3 | EG GG | FG A2 | [DF][EG] [FA]D | F E3 | %8
w: S.~D.~Goodale * * *||||||||
 G[GB] [Ge][GB] | [Bd]c A2 | FG AB | [Ad][DAc] [EGB]2 | EG GG | FG A2 | [DF][EG] [FA]D | %15
w: |||||||
[M:6/4] F E3 z2 z6 |] %16
w: |
V:2
 [E,G,][E,B,E] [E,B,E][E,B,E] | [A,B,D][G,B,D] [F,B,D]2 | [B,,B,][B,,B,] [B,,B,][B,,A,] | %3
 [E,A,E] [E,G,E]3 | [E,G,][E,B,E] [E,B,E][E,B,E] | [A,B,D][G,B,D] [F,B,D]2 | %6
 [B,,B,][B,,B,] [B,,B,][B,,A,B,] | [E,A,B,] [E,G,B,]3 | [E,B,E][E,E] [E,E][E,E] | %9
 [A,E][A,EA] [B,DF]2 | [A,B,D][G,B,E][K:bass] [F,B,D][F,B,D] | [B,,B,]B,, E,2 | %12
 [E,G,][E,B,E] [E,B,E][E,B,E] | [A,B,D][G,B,D] [F,B,D]2 | [B,,B,][B,,B,] [B,,B,][B,,A,B,] | %15
[M:6/4] [E,A,B,] [E,G,B,]3 z2 z6 |] %16

